!!!SOCIAL_FUNCTION:	songs for little children
!!!PDT:	1939
!!!OTL: No_122_A_Song_of_Prophecy.krn
!!!LANG: Non-Tone
!!!LING_GROUP: Wakashan
!!!REG: Pacific Northwest
**kern
*staff1
=1-
*clefF4
*k[]
*M3/4
2r
12c\L
12d\
12d\J
=2!|:
8e\L
[8e\J
4.e\]
8r
=3
12f\L
12e\
12e\J
8.e\L
16c\Jk
12e\L
12d\
12c\J
=4
8c\L
[8c\J
4.c\]
8r
=5
12d\L
12d\
12e\J
16e\LL
16d\
16d\
16c\JJ
8c\
8r
=6||
*M2/4
8.e\L
16f\Jk
12e\L
12d\
12c\J
=7||
*M3/4
4c\
8A\
8r
8.c\L
16d\Jk
=8
12e\L
12d\
12d\J
8c\
8r
12d\L
12d\
12d\J
=9
8c\L
[8c\J
4.c\]
8r
=10
12d\L
12c\
12c\J
8.c\L
16c\Jk
12c\L
12c\
12A\J
=11||
8c\L
[8c\J
4c\]
=12
8d\
8r
12c\L
12d\
12d\J
==:|!
*-
